X: 30384
T: Old Road To Garry, The
R: reel
M: 4/4
K: Dmajor
dF~F2 ABdf|edBA BedB|AF~F2 d2af|g2ag fdef|
dF~F2 ABdf|edBA (3Bcd ef|g2ge f2df|ebag fdd2||
af~f2 dfed|Bdgf eafg|a2af dfaf|g2ag fdd2|
af~f2 af~f2|gabg eafa|b2ag fedB|ABde fdef||

